X:3
T:Johnnie Mickey's Polka
T:The Wren's Polka
M:2/4
L:1/8
K:A
 "A"Ac "E7"EF|"D"A>A Af|"A"ec BA|"E7"e/f/e/c/ Bc/B/|
"A"Ac "E7"EF|"D"A>A Af|"A"ec "E7"BA/B/|1 "A"cA AE:|2 "A"cA AB||
 |:"A"ce ce|"D(F#m)"a2 af|"A"ec "E7"BA|"A"e/f/e/c/ "D"BA|
|1"A"ce ce|"D(F#m)"a2 af|"A"ec "E7"BA/B/|"A"cA A"E7"B:|
|2"A"Ac "E7"EF|"D"A>A Af|"A"ec "E7"BA/B/|"A"cA A2|]
